icons/solid/receipt-text.svg

<svg width="24" height="24" viewBox="0 0 24 24" fill="none" xmlns="http://www.w3.org/2000/svg">
<path fill-rule="evenodd" clip-rule="evenodd" d="M4 5C4 3.34315 5.34315 2 7 2H17C18.6569 2 20 3.34315 20 5V21C20 21.3565 19.8102 21.686 19.5019 21.8649C19.1936 22.0438 18.8134 22.0451 18.5039 21.8682L15.5 20.1518L13.4884 21.3012C12.5661 21.8283 11.4339 21.8283 10.5116 21.3012L8.5 20.1518L5.49614 21.8682C5.18664 22.0451 4.80639 22.0438 4.49807 21.8649C4.18976 21.686 4 21.3565 4 21V5ZM9 6C8.44772 6 8 6.44772 8 7C8 7.55228 8.44772 8 9 8H15C15.5523 8 16 7.55228 16 7C16 6.44772 15.5523 6 15 6H9ZM9 10C8.44772 10 8 10.4477 8 11C8 11.5523 8.44772 12 9 12H15C15.5523 12 16 11.5523 16 11C16 10.4477 15.5523 10 15 10H9ZM9 14C8.44772 14 8 14.4477 8 15C8 15.5523 8.44772 16 9 16H12C12.5523 16 13 15.5523 13 15C13 14.4477 12.5523 14 12 14H9Z" fill="currentColor"/>
</svg>

<svg width="24" height="24" fill="none" xmlns="http://www.w3.org/2000/svg"><path fill-rule="evenodd" clip-rule="evenodd" d="M4 5a3 3 0 013-3h10a3 3 0 013 3v16a1 1 0 01-1.496.868L15.5 20.152l-2.012 1.15a3 3 0 01-2.976 0L8.5 20.151l-3.004 1.716A1 1 0 014 21V5zm5 1a1 1 0 000 2h6a1 1 0 100-2H9zm0 4a1 1 0 100 2h6a1 1 0 100-2H9zm0 4a1 1 0 100 2h3a1 1 0 100-2H9z" fill="currentColor"/></svg>
